libs/icons/src/svg/code.svg

<svg width="16" height="16" viewBox="0 0 16 16" fill="none" xmlns="http://www.w3.org/2000/svg">
<path fill-rule="evenodd" clip-rule="evenodd" d="M9.98011 2.82836C10.0694 2.47117 9.85224 2.10921 9.49504 2.01991C9.13785 1.93061 8.77589 2.14778 8.68659 2.50498L6.01993 13.1716C5.93063 13.5288 6.1478 13.8908 6.505 13.9801C6.86219 14.0694 7.22415 13.8522 7.31345 13.495L9.98011 2.82836ZM4.47142 4.86193C4.73177 5.12228 4.73177 5.54439 4.47142 5.80474L2.27616 8L4.47142 10.1953C4.73177 10.4556 4.73177 10.8777 4.47142 11.1381C4.21108 11.3984 3.78896 11.3984 3.52862 11.1381L0.861949 8.47141C0.6016 8.21106 0.6016 7.78895 0.861949 7.5286L3.52862 4.86193C3.78896 4.60158 4.21108 4.60158 4.47142 4.86193ZM11.5286 4.86193C11.789 4.60158 12.2111 4.60158 12.4714 4.86193L15.1381 7.5286C15.3984 7.78895 15.3984 8.21106 15.1381 8.47141L12.4714 11.1381C12.2111 11.3984 11.789 11.3984 11.5286 11.1381C11.2683 10.8777 11.2683 10.4556 11.5286 10.1953L13.7239 8L11.5286 5.80474C11.2683 5.54439 11.2683 5.12228 11.5286 4.86193Z" fill="#202327"/>
</svg>

<svg xmlns="http://www.w3.org/2000/svg" viewBox="0 0 16 16" class="sageicon"><path fill-rule="evenodd" d="M9.98 2.828a.667.667 0 0 0-1.293-.323L6.02 13.172a.667.667 0 0 0 1.293.323L9.98 2.828ZM4.471 4.862c.26.26.26.682 0 .943L2.276 8l2.195 2.195a.667.667 0 1 1-.942.943L.862 8.471a.667.667 0 0 1 0-.942l2.667-2.667c.26-.26.682-.26.942 0Zm7.058 0c.26-.26.682-.26.942 0l2.667 2.667c.26.26.26.682 0 .942l-2.667 2.667a.667.667 0 0 1-.942-.943L13.724 8l-2.195-2.195a.667.667 0 0 1 0-.943Z"/></svg>
